packages/foundations/assets/icons/functional/images/technology/light_bulb_12.svg

<svg width="12" height="12" viewBox="0 0 12 12" fill="none" xmlns="http://www.w3.org/2000/svg">
<g clip-path="url(#clip0_232_463)">
<path fill-rule="evenodd" clip-rule="evenodd" d="M7.19971 8.9994H4.79971C4.46851 8.9994 4.19971 9.2676 4.19971 9.5994C4.19971 9.9312 4.46851 10.1994 4.79971 10.1994H5.10211C5.10211 10.1994 5.10211 10.2 5.10211 10.2006C5.10211 10.5324 5.37091 10.8006 5.70211 10.8006H6.29731C6.62851 10.8006 6.89731 10.5324 6.89731 10.2006C6.89731 10.2006 6.89731 10.2 6.89731 10.1994H7.19971C7.53091 10.1994 7.79971 9.9312 7.79971 9.5994C7.79971 9.2676 7.53091 8.9994 7.19971 8.9994ZM6.00031 1.1994C7.82011 1.1994 9.30031 2.6802 9.30031 4.4994C9.30031 5.6886 8.75971 6.4578 8.36491 7.0194C8.14411 7.3338 7.95331 7.605 7.94551 7.821C7.93351 8.1438 7.66831 8.3994 7.34551 8.3994H4.65451C4.33111 8.3994 4.06651 8.1438 4.05451 7.821C4.04671 7.605 3.85591 7.3332 3.63511 7.0194C3.24031 6.4584 2.69971 5.6886 2.69971 4.4994C2.69971 2.6802 4.17991 1.1994 6.00031 1.1994ZM6.00031 2.3994C4.84231 2.3994 3.90031 3.3414 3.90031 4.4994C3.90031 5.3094 4.26511 5.8278 4.61731 6.3294C4.80991 6.6042 5.00731 6.8844 5.13031 7.1994H6.86971C6.99271 6.8844 7.19011 6.6042 7.38331 6.3294C7.73551 5.8278 8.10031 5.3094 8.10031 4.4994C8.10031 3.3414 7.15831 2.3994 6.00031 2.3994ZM5.41531 3.1176C5.72131 2.9892 6.07291 3.1308 6.20191 3.4356C6.33091 3.741 6.18871 4.0932 5.88331 4.2228C5.79931 4.2582 5.73451 4.3314 5.70991 4.419C5.63611 4.6836 5.39551 4.857 5.13271 4.857C5.07931 4.857 5.02471 4.8498 4.97071 4.8348C4.65211 4.746 4.46551 4.4148 4.55491 4.0956C4.67731 3.66 4.99831 3.2946 5.41531 3.1176Z" fill="#1A1C1F"/>
</g>
<defs>
<clipPath id="clip0_232_463">
<rect width="12" height="12" fill="white"/>
</clipPath>
</defs>
</svg>

<svg xmlns="http://www.w3.org/2000/svg" width="12" height="12" fill="none"><g clip-path="url(#a)"><path fill="#1A1C1F" fill-rule="evenodd" d="M7.2 9H4.8a.6.6 0 1 0 0 1.2h.302a.6.6 0 0 0 .6.6h.595a.6.6 0 0 0 .6-.6H7.2a.6.6 0 1 0 0-1.2M6 1.2c1.82 0 3.3 1.48 3.3 3.3 0 1.189-.54 1.958-.935 2.52-.22.314-.412.585-.42.801a.6.6 0 0 1-.6.578h-2.69a.6.6 0 0 1-.6-.578c-.008-.216-.2-.488-.42-.802C3.24 6.46 2.7 5.69 2.7 4.5 2.7 2.68 4.18 1.2 6 1.2m0 1.2c-1.158 0-2.1.941-2.1 2.1 0 .81.365 1.328.717 1.83.193.274.39.554.513.87h1.74c.123-.316.32-.596.513-.87.353-.502.717-1.02.717-1.83 0-1.159-.942-2.1-2.1-2.1m-.585.718a.6.6 0 0 1 .468 1.105.3.3 0 0 0-.173.196.6.6 0 1 1-1.155-.323c.122-.436.443-.801.86-.978" clip-rule="evenodd"/></g><defs><clipPath id="a"><path fill="#fff" d="M0 0h12v12H0z"/></clipPath></defs></svg>
